resources/icon/server/clickhouse.svg

<svg height="2222" viewBox="0 0 9 8" width="2500" xmlns="http://www.w3.org/2000/svg"><path d="m0 7h1v1h-1z" fill="#f00"/><path d="m0 0h1v7h-1zm2 0h1v8h-1zm2 0h1v8h-1zm2 0h1v8h-1zm2 3.25h1v1.5h-1z" fill="#fc0"/></svg>

<svg xmlns="http://www.w3.org/2000/svg" xmlns:xlink="http://www.w3.org/1999/xlink" width="150" height="150" version="1.1" style="">
	<rect id="backgroundrect" width="100%" height="100%" x="0" y="0" fill="none" stroke="none" />


	<g class="currentLayer" style="">
		<title>Layer 1</title>
		<g transform="matrix(17 0 0 17 0.1250248 -0)">
			<path d="M0 7L1 7L1 8L0 8L0 7z" stroke="none" fill="#FF0000" fill-rule="nonzero" />
			<path d="M0 0L1 0L1 7L0 7L0 0zM2 0L3 0L3 8L2 8zM4 0L5 0L5 8L4 8zM6 0L7 0L7 8L6 8zM8 3.25L9 3.25L9 4.75L8 4.75z" stroke="none" fill="#FFCC00" fill-rule="nonzero" />
		</g>
	</g>
</svg>
